X:217
T: AUF DEM BERGE WACHSEN REBEN
N: E0793
O: Europa, Mitteleuropa, Deutschland; Frankreich, Elsass, Weissenburg
R: Abschieds - Lied, Freundschaft
M: 2/4
L: 1/16
K: Bb
B,2D2 | F3FF2F2 | F3F
G2A2 | c3BB2D2 | F2F2
G2D2 | F3EE2E2 | E3E
F2F2 | A3GF2E2 | D4
D3E | F4D3E | F4F2F2 | d6c2 | B4
B2d2 | c4e2c2 | A2A2G2A2 | B4
D3E | F4D3E | F4F2F2 | d6c2 | B4
B2d2 | c4e2c2 | A2A2G2A2 | B4

@@@ Tune index: 4530
